X: 1
T: Kafoozalum
M: 4/4
L: 1/8
R: barndance
K: Gmaj
|: d2 d>c B>c d2 | A>Bc>E A>Bc>e |
d2 d>c B>cd>D |[1 G>AB>G (3ABA G>B :|[2 G2 (3BAG A2 G>c ||
B>GD>G B>G d2 | c>AF>A c>A d2 |
B>GD>G B>Gd>B | G>A (3BAG (3ABA G>c |
B>GD>G B>GD>G | c>AF>A c>A (3FGA |
d2 d>c B>cd>D | G>DB>D A2 G2 |]
